X:3175
T:Colección Feij\'oo: N\'umero 5
O:Galicia (Spain)
B:Libro Aires da Terra, de J.L. Calle
Z:Transcrito por Jos\'e J. Presedo
Z:Covertido de Midi a abc por Antonio-Nil
N:http://www.arrakis.es/~jpresedo/
M: 4/4
L: 1/8
Q:1/4=200
K:G % 1 sharps
z4 Bc d/2c/2-[c/2B/2-]B/2|cA Bc Bd BG|Bc d/2c/2-[c/2B/2-]B/2 cA2c/2B/2-|[B/2A/2-]A/2F D2 Bc d/2c/2-[c/2B/2-]B/2|
cA Bc Bd BG|Bc d/2c/2-[c/2B/2-]B/2 cB dc|A4 dB GA|BF AB EG FD|
FG AF AA/2G/2- [G/2E/2-]E/2^C|D4 dB GA|BF AB EG FD|FG AF AA/2G/2- [G/2E/2-]E/2^C|
D4 dB GA|BF AB EG FD|FG AF AA/2G/2- [G/2E/2-]E/2^C|D3G/2F/2- [F/2E/2-]E/2F GE|
^C2 A/2G/2-[G/2F/2-]F/2 AF D2|FG BA FA GE|G/2[A/2G/2]F DG/2F/2- [F/2E/2-]E/2F GE|^C2 A/2G/2-[G/2F/2-]F/2 AF D2|
FG AF F/2A/2-[A/2G/2-]G/2 E^C|D4 Bc d/2c/2-[c/2B/2-]B/2|cA Bc Bd BG|Bc d/2c/2-[c/2B/2-]B/2 cA2c/2B/2-|
[B/2A/2-]A/2F D2 Bc d/2c/2-[c/2B/2-]B/2|cA Bc Bd BG|Bc d/2c/2-[c/2B/2-]B/2 cB dc|A4 dB GA|
BF AB EG FD|FG AF AA/2G/2- [G/2E/2-]E/2^C|D4 dB GA|BF AB EG FD|
FG AF AA/2G/2- [G/2E/2-]E/2^C|D4 dB GA|BF AB EG FD|FG AF AA/2G/2- [G/2E/2-]E/2^C|
D3G/2F/2- [F/2E/2-]E/2F GE|^C2 A/2G/2-[G/2F/2-]F/2 AF D2|FG BA FA GE|G/2[A/2G/2]F DG/2F/2- [F/2E/2-]E/2F GE|
^C2 A/2G/2-[G/2F/2-]F/2 AF D2|FG AF F/2A/2-[A/2G/2-]G/2 E^C|D4 Bc d/2c/2-[c/2B/2-]B/2|cA Bc Bd BG|
Bc d/2c/2-[c/2B/2-]B/2 cA2c/2B/2-|[B/2A/2-]A/2F D2 Bc d/2c/2-[c/2B/2-]B/2|cA Bc Bd BG|Bc d/2c/2-[c/2B/2-]B/2 cB dc|
A4 dB GA|BF AB EG FD|FG AF AA/2G/2- [G/2E/2-]E/2^C|D4 dB GA|
BF AB EG FD|FG AF AA/2G/2- [G/2E/2-]E/2^C|D4 dB GA|BF AB EG FD|
FG AF AA/2G/2- [G/2E/2-]E/2^C|D3G/2F/2- [F/2E/2-]E/2F GE|^C2 A/2G/2-[G/2F/2-]F/2 AF D2|FG BA FA GE|
G/2[A/2G/2]F DG/2F/2- [F/2E/2-]E/2F GE|^C2 A/2G/2-[G/2F/2-]F/2 AF D2|FG AF F/2A/2-[A/2G/2-]G/2 E^C|D4 


